SVG_Azure_All/Blockchain Streaming.svg

<?xml version="1.0" encoding="UTF-8" standalone="no"?>
<!-- Generated by Microsoft Visio, SVG Export Blockchain Streaming.svg Page-1 -->

<svg
   xmlns:dc="http://purl.org/dc/elements/1.1/"
   xmlns:cc="http://creativecommons.org/ns#"
   xmlns:rdf="http://www.w3.org/1999/02/22-rdf-syntax-ns#"
   xmlns:svg="http://www.w3.org/2000/svg"
   xmlns="http://www.w3.org/2000/svg"
   xmlns:sodipodi="http://sodipodi.sourceforge.net/DTD/sodipodi-0.dtd"
   xmlns:inkscape="http://www.inkscape.org/namespaces/inkscape"
   width="0.78756505in"
   height="0.62984276in"
   viewBox="0 0 56.704682 45.348842"
   xml:space="preserve"
   class="st7"
   version="1.1"
   id="svg41"
   sodipodi:docname="Blockchain Streaming.svg"
   style="font-size:12px;overflow:visible;color-interpolation-filters:sRGB;fill:none;fill-rule:evenodd;stroke-linecap:square;stroke-miterlimit:3"
   inkscape:version="0.92.5 (2060ec1f9f, 2020-04-08)"><metadata
   id="metadata47"><rdf:RDF><cc:Work
       rdf:about=""><dc:format>image/svg+xml</dc:format><dc:type
         rdf:resource="http://purl.org/dc/dcmitype/StillImage" /></cc:Work></rdf:RDF></metadata><defs
   id="defs45" /><sodipodi:namedview
   pagecolor="#ffffff"
   bordercolor="#666666"
   borderopacity="1"
   objecttolerance="10"
   gridtolerance="10"
   guidetolerance="10"
   inkscape:pageopacity="0"
   inkscape:pageshadow="2"
   inkscape:window-width="640"
   inkscape:window-height="480"
   id="namedview43"
   showgrid="false"
   inkscape:zoom="2.1095237"
   inkscape:cx="37.799207"
   inkscape:cy="10.577821"
   inkscape:window-x="0"
   inkscape:window-y="0"
   inkscape:window-maximized="0"
   inkscape:current-layer="svg41" />
	<style
   type="text/css"
   id="style2">
	<![CDATA[
		.st1 {fill:#773adc;stroke:none;stroke-linecap:butt;stroke-width:0.75}
		.st2 {fill:#b796f9;stroke:none;stroke-linecap:butt;stroke-width:0.75}
		.st3 {fill:#a67af4;stroke:none;stroke-linecap:butt;stroke-width:0.75}
		.st4 {fill:#552f99;stroke:none;stroke-linecap:butt;stroke-width:0.75}
		.st5 {fill:#50e6ff;stroke:none;stroke-linecap:butt;stroke-width:0.75}
		.st6 {fill:#32bedd;stroke:none;stroke-linecap:butt;stroke-width:0.75}
		.st7 {fill:none;fill-rule:evenodd;font-size:12px;overflow:visible;stroke-linecap:square;stroke-miterlimit:3}
	]]>
	</style>

	<g
   id="g39"
   transform="translate(-5.6663665,-4.5373)">
		<title
   id="title4">Page-1</title>
		<g
   id="group7249-1"
   transform="translate(5.66929,-34.0157)">
			<title
   id="title6">Blockchain Streaming</title>
			<g
   id="shape7250-2"
   transform="translate(26.7185,-8.06007)">
				<title
   id="title8">Sheet.7250</title>
				<path
   d="M 16.85,55.95 V 74.54 L 0,83.91 V 65.26 Z"
   class="st1"
   id="path10"
   inkscape:connector-curvature="0"
   style="fill:#773adc;stroke:none;stroke-width:0.75;stroke-linecap:butt" />
			</g>
			<g
   id="shape7251-4"
   transform="translate(9.83188,-26.677)">
				<title
   id="title13">Sheet.7251</title>
				<path
   d="M 33.74,74.57 16.89,83.91 0,74.57 16.89,65.23 Z"
   class="st2"
   id="path15"
   inkscape:connector-curvature="0"
   style="fill:#b796f9;stroke:none;stroke-width:0.75;stroke-linecap:butt" />
			</g>
			<g
   id="shape7252-6"
   transform="translate(9.83188,-8.06007)">
				<title
   id="title18">Sheet.7252</title>
				<path
   d="M 16.89,65.29 V 83.91 L 0,74.54 V 55.95 Z"
   class="st3"
   id="path20"
   inkscape:connector-curvature="0"
   style="fill:#a67af4;stroke:none;stroke-width:0.75;stroke-linecap:butt" />
			</g>
			<g
   id="shape7253-8"
   transform="translate(31.2194,-16.6734)">
				<title
   id="title23">Sheet.7253</title>
				<path
   d="m 3.99,73.96 c 2.23,-1.21 4.02,-0.24 4.02,2.18 A 8.84231,8.37156 0 0 1 4.02,82.7 C 1.79,83.91 0,82.94 0,80.52 a 8.84231,8.37156 0 0 1 3.99,-6.56 z"
   class="st4"
   id="path25"
   inkscape:connector-curvature="0"
   style="fill:#552f99;stroke:none;stroke-width:0.75;stroke-linecap:butt" />
			</g>
			<g
   id="shape7254-10"
   transform="translate(34.3477,-20.149)">
				<title
   id="title28">Sheet.7254</title>
				<path
   d="M 12.07,83.91 H 2.01 a 2.0121262,1.905 0 0 1 0,-3.81 h 10.06 a 6.57587,6.22578 -180 0 0 6.38,-6.44 6.57587,6.22578 -180 0 0 -6.38,-6.47 2.0121262,1.905 0 0 1 0,-3.81 10.5661,10.0036 0 0 1 10.28,10.28 10.5661,10.0036 0 0 1 -10.28,10.25 z"
   class="st5"
   id="path30"
   inkscape:connector-curvature="0"
   style="fill:#50e6ff;stroke:none;stroke-width:0.75;stroke-linecap:butt" />
			</g>
			<g
   id="shape7255-12">
				<title
   id="title33">Sheet.7255</title>
				<path
   d="m 37.73,75.97 -7.76,-7.35 a 0.414982,0.392889 -180 0 0 -0.638434,0 L 29.34,74.27 H 10.18 A 6.57587,6.22578 0 0 1 3.8,67.81 6.60779,6.25601 0 0 1 9.83,61.43 V 57.62 A 10.6299,10.064 -180 0 0 0,67.87 10.598,10.0338 -180 0 0 10.28,78.14 h 19.15 v 5.62 a 0.414982,0.392889 -180 0 0 0.638434,0 L 37.73,76.36 a 0.351139,0.332445 -180 0 0 0,-0.392889 z"
   class="st6"
   id="path35"
   inkscape:connector-curvature="0"
   style="fill:#32bedd;stroke:none;stroke-width:0.75;stroke-linecap:butt" />
			</g>
		</g>
	</g>
</svg>

<?xml version="1.0" encoding="UTF-8" standalone="no"?>
<!DOCTYPE svg PUBLIC "-//W3C//DTD SVG 1.1//EN" "http://www.w3.org/Graphics/SVG/1.1/DTD/svg11.dtd">
<!-- Generated by Microsoft Visio, SVG Export Blockchain Streaming.svg Page-1 -->
<svg xmlns="http://www.w3.org/2000/svg" xmlns:xlink="http://www.w3.org/1999/xlink" xmlns:ev="http://www.w3.org/2001/xml-events"
		width="0.944882in" height="1.16535in" viewBox="0 0 68.0315 83.9055" xml:space="preserve" color-interpolation-filters="sRGB"
		class="st7">
	<style type="text/css">
	<![CDATA[
		.st1 {fill:#773adc;stroke:none;stroke-linecap:butt;stroke-width:0.75}
		.st2 {fill:#b796f9;stroke:none;stroke-linecap:butt;stroke-width:0.75}
		.st3 {fill:#a67af4;stroke:none;stroke-linecap:butt;stroke-width:0.75}
		.st4 {fill:#552f99;stroke:none;stroke-linecap:butt;stroke-width:0.75}
		.st5 {fill:#50e6ff;stroke:none;stroke-linecap:butt;stroke-width:0.75}
		.st6 {fill:#32bedd;stroke:none;stroke-linecap:butt;stroke-width:0.75}
		.st7 {fill:none;fill-rule:evenodd;font-size:12px;overflow:visible;stroke-linecap:square;stroke-miterlimit:3}
	]]>
	</style>

	<g>
		<title>Page-1</title>
		<g id="group7081-1" transform="translate(5.66929,-34.0157)">
			<title>Blockchain Streaming</title>
			<g id="shape7082-2" transform="translate(26.7185,-8.06007)">
				<title>Sheet.7082</title>
				<path d="M16.85 55.95 L16.85 74.54 L0 83.91 L0 65.26 L16.85 55.95 Z" class="st1"/>
			</g>
			<g id="shape7083-4" transform="translate(9.83188,-26.677)">
				<title>Sheet.7083</title>
				<path d="M33.74 74.57 L16.89 83.91 L0 74.57 L16.89 65.23 L33.74 74.57 Z" class="st2"/>
			</g>
			<g id="shape7084-6" transform="translate(9.83188,-8.06007)">
				<title>Sheet.7084</title>
				<path d="M16.89 65.29 L16.89 83.91 L0 74.54 L0 55.95 L16.89 65.29 Z" class="st3"/>
			</g>
			<g id="shape7085-8" transform="translate(31.2194,-16.6734)">
				<title>Sheet.7085</title>
				<path d="M3.99 73.96 C6.22 72.75 8.01 73.72 8.01 76.14 A8.84231 8.37156 0 0 1 4.02 82.7 C1.79 83.91 0 82.94 0 80.52
							 A8.84231 8.37156 0 0 1 3.99 73.96 Z" class="st4"/>
			</g>
			<g id="shape7086-10" transform="translate(34.3477,-20.149)">
				<title>Sheet.7086</title>
				<path d="M12.07 83.91 L2.01 83.91 A2.01107 1.904 0 0 1 2.01 80.1 L12.07 80.1 A6.57587 6.22578 -180 0 0 18.45 73.66
							 A6.57587 6.22578 -180 0 0 12.07 67.19 A2.01107 1.904 0 0 1 12.07 63.38 A10.5661 10.0036 0 0 1 22.35
							 73.66 A10.5661 10.0036 0 0 1 12.07 83.91 Z" class="st5"/>
			</g>
			<g id="shape7087-12">
				<title>Sheet.7087</title>
				<path d="M37.73 75.97 L29.97 68.62 a0.414982 0.392889 -180 0 0 -0.638434 -2.84217E-14 L29.34 74.27 L10.18 74.27 A6.57587
							 6.22578 0 0 1 3.8 67.81 A6.60779 6.25601 0 0 1 9.83 61.43 L9.83 57.62 A10.6299 10.064 -180 0 0 0 67.87
							 A10.598 10.0338 -180 0 0 10.28 78.14 L29.43 78.14 L29.43 83.76 a0.414982 0.392889 -180 0 0 0.638434
							 7.10543E-14 L37.73 76.36 a0.351139 0.332445 -180 0 0 -9.23706E-14 -0.392889 Z" class="st6"/>
			</g>
		</g>
	</g>
</svg>
